;FLAVOR:RepRap
;TIME:4020
;Filament used: 2.07873m
;Layer height: 0.2
;Generated with Cura_SteamEngine master
M190 S45
M104 S206
M109 S206
G28 ;Home
G1 Z50.0 F6000 ;Move the platform down 15mm
G92 E0
G1 F200 E3
G92 E0
;LAYER_COUNT:25
;LAYER:0
M107
G1 F4200 E-4.5
G1 Z21
G0 F3000 X-.237 Y32.741 Z1.2
;TYPE:SKIRT
G1 Z0.2
G1 F4200 E0
G1 F900 X-5.289 Y32.381 E0.16846
G1 X-10.373 Y32.306 E0.33757
G1 X-15.438 Y32.52 E0.50618
G1 X-20.615 Y33.031 E0.67921
G1 X-24.914 Y33.618 E0.82352
G1 X-25.813 Y33.701 E0.85355
G1 X-26.716 Y33.703 E0.88358
G1 X-27.616 Y33.626 E0.91362
G1 X-28.506 Y33.469 E0.94368
G1 X-28.967 Y33.356 E0.95947
G1 X-29.582 Y33.189 E0.98067
G1 X-30.442 Y32.914 E1.0107
G1 X-31.275 Y32.564 E1.04075
G1 X-32.073 Y32.141 E1.07079
G1 X-32.831 Y31.65 E1.10083
G1 X-33.325 Y31.274 E1.12147
G1 X-33.996 Y30.731 E1.15018
G1 X-34.673 Y30.132 E1.18025
G1 X-35.293 Y29.476 E1.21027
G1 X-35.853 Y28.768 E1.24029
G1 X-36.349 Y28.013 E1.27034
G1 X-36.708 Y27.354 E1.2953
G1 X-37.084 Y26.6 E1.32332
G1 X-37.451 Y25.775 E1.35336
G1 X-37.743 Y24.92 E1.38341
G1 X-37.959 Y24.043 E1.41345
G1 X-38.096 Y23.151 E1.44346
G1 X-38.137 Y22.678 E1.45925
G1 X-38.181 Y21.967 E1.48295
G1 X-38.196 Y21.064 E1.51298
G1 X-38.144 Y20.274 E1.53932
G1 X-37.707 Y16.108 E1.67864
G1 X-37.414 Y10.984 E1.84934
G1 X-37.331 Y-17.91 E2.81036
G1 X-37.288 Y-18.812 E2.8404
G1 X-37.142 Y-19.834 E2.87474
G1 X-36.905 Y-21.049 E2.91591
G1 X-36.693 Y-21.927 E2.94595
G1 X-36.421 Y-22.74 E2.97446
G1 X-36.141 Y-23.472 E3.00053
G1 X-35.575 Y-24.701 E3.04553
G1 X-35.196 Y-25.398 E3.07192
G1 X-34.73 Y-26.171 E3.10194
G1 X-34.205 Y-26.89 E3.13155
G1 X-33.368 Y-27.938 E3.17616
G1 X-32.774 Y-28.618 E3.20619
G1 X-32.097 Y-29.264 E3.23732
G1 X-31.5 Y-29.784 E3.26365
G1 X-30.438 Y-30.594 E3.30807
G1 X-29.794 Y-31.021 E3.33377
G1 X-29.02 Y-31.486 E3.36381
G1 X-28.452 Y-31.772 E3.38496
G1 X-27.543 Y-32.194 E3.41829
G1 X-26.708 Y-32.537 E3.44831
G1 X-26.139 Y-32.724 E3.46823
G1 X-25.381 Y-32.948 E3.49452
G1 X-24.504 Y-33.165 E3.52457
G1 X-23.763 Y-33.286 E3.54954
G1 X-22.65 Y-33.426 E3.58685
G1 X-21.372 Y-33.506 E3.62944
G1 X22.384 Y-33.483 E5.08477
G1 X23.287 Y-33.443 E5.11484
G1 X24.351 Y-33.291 E5.15059
G1 X25.574 Y-33.05 E5.19205
G1 X26.452 Y-32.836 E5.2221
G1 X27.661 Y-32.4 E5.26485
G1 X28.876 Y-31.873 E5.3089
G1 X29.688 Y-31.477 E5.33895
G1 X30.49 Y-30.992 E5.37012
G1 X31.146 Y-30.553 E5.39637
G1 X32.195 Y-29.747 E5.44037
G1 X32.785 Y-29.23 E5.46646
G1 X33.437 Y-28.606 E5.49648
G1 X33.75 Y-28.264 E5.5119
G1 X34.276 Y-27.661 E5.53851
G1 X34.838 Y-26.955 E5.56853
G1 X35.207 Y-26.412 E5.59036
G1 X35.747 Y-25.559 E5.62394
G1 X36.196 Y-24.775 E5.65399
G1 X36.7 Y-23.63 E5.6956
G1 X37.235 Y-22.178 E5.74707
G1 X37.509 Y-21.317 E5.77712
G1 X37.694 Y-20.506 E5.80479
G1 X37.792 Y-19.976 E5.82271
G1 X37.917 Y-19.081 E5.85277
G1 X37.962 Y-18.127 E5.88453
G1 X37.979 Y9.257 E6.79533
G1 X37.94 Y10.159 E6.82536
G1 X37.826 Y11.024 E6.85438
G1 X37.657 Y11.988 E6.88693
G1 X37.462 Y12.87 E6.91697
G1 X37.267 Y13.511 E6.93926
G1 X37.015 Y14.252 E6.96529
G1 X36.507 Y15.477 E7.0094
G1 X36.164 Y16.173 E7.03521
G1 X35.73 Y16.965 E7.06524
G1 X35.363 Y17.525 E7.08751
G1 X34.774 Y18.364 E7.12161
G1 X34.223 Y19.079 E7.15163
G1 X33.514 Y19.838 E7.18618
G1 X32.565 Y20.755 E7.23007
G1 X31.888 Y21.353 E7.26011
G1 X31.159 Y21.891 E7.29025
G1 X30.515 Y22.323 E7.31604
G1 X29.744 Y22.792 E7.34605
G1 X29.214 Y23.063 E7.36585
G1 X26.945 Y24.142 E7.44942
G1 X22.267 Y26.53 E7.62411
G1 X17.86 Y29.104 E7.79386
G1 X13.826 Y31.753 E7.95437
G1 X13.05 Y32.215 E7.98441
G1 X11.988 Y32.709 E8.02336
G1 X11.582 Y32.87 E8.03789
G1 X10.729 Y33.165 E8.06791
G1 X9.852 Y33.384 E8.09798
G1 X8.929 Y33.528 E8.12905
G1 X8.471 Y33.578 E8.14437
G1 X7.57 Y33.636 E8.1744
G1 X6.667 Y33.614 E8.20444
G1 X6.057 Y33.554 E8.22483
G1 X-.237 Y32.741 E8.43591
G0 F3000 X6.372 Y22.912
;TYPE:SUPPORT
G1 F900 X6.087 Y22.633 E8.44917
G1 X5.867 Y22.281 E8.46298
G1 X5.761 Y22.009 E8.47269
G1 X5.699 Y21.698 E8.48324
G1 X5.706 Y20.577 E8.52052
G1 X5.517 Y20.133 E8.53657
G1 X3.69 Y18.409 E8.62012
G1 X1.827 Y16.744 E8.70322
G1 X1.28 Y16.736 E8.72142
G1 X0.139 Y17.686 E8.7708
G1 X-0.014 Y17.769 E8.77659
G1 X-.258 Y17.819 E8.78487
G1 X-.403 Y17.827 E8.7897
G1 X-.557 Y17.82 E8.79483
G1 X-.75 Y17.773 E8.80144
G1 X-1.999 Y16.797 E8.85416
G1 X-2.831 Y16.088 E8.89052
G1 X-3.339 Y16.01 E8.90761
G1 X-5.907 Y17.098 E9.00037
G1 X-6.21 Y17.503 E9.01719
G1 X-6.376 Y18.857 E9.06257
G1 X-6.375 Y18.857 E9.0626
G1 X-6.502 Y19.845 E9.09573
G1 X-6.605 Y20.321 E9.11193
G1 X-6.671 Y20.453 E9.11684
G1 X-6.777 Y20.582 E9.12239
G1 X-7.031 Y20.845 E9.13455
G1 X-11.976 Y20.845 E9.29902
G1 X-12.24 Y20.569 E9.31173
G1 X-12.343 Y20.45 E9.31696
G1 X-12.399 Y20.354 E9.32066
G1 X-12.443 Y20.178 E9.32669
G1 X-12.611 Y19.173 E9.36058
G1 X-12.808 Y17.498 E9.41668
G1 X-13.11 Y17.093 E9.43348
G1 X-15.657 Y16.014 E9.52548
G1 X-16.162 Y16.086 E9.54245
G1 X-17.969 Y17.551 E9.61982
G1 X-18.383 Y17.799 E9.63587
G1 X-18.466 Y17.816 E9.63869
G1 X-18.691 Y17.804 E9.64618
G1 X-18.741 Y17.813 E9.64787
G1 X-18.942 Y17.782 E9.65464
G1 X-19.041 Y17.75 E9.6581
G1 X-20.083 Y16.836 E9.7042
G1 X-20.633 Y16.841 E9.72249
G1 X-22.553 Y18.559 E9.80818
G1 X-24.395 Y20.239 E9.8911
G1 X-24.569 Y20.701 E9.90752
G1 X-24.47 Y21.575 E9.93678
G1 X-24.51 Y21.961 E9.94969
G1 X-24.67 Y22.41 E9.96554
G1 X-24.809 Y22.643 E9.97456
G1 X-24.98 Y22.846 E9.98339
G1 X-25.284 Y23.093 E9.99642
G1 X-25.617 Y23.248 E10.00864
G1 X-25.971 Y23.326 E10.02069
G1 X-26.355 Y23.319 E10.03347
G1 X-26.719 Y23.224 E10.04598
G1 X-27.052 Y23.052 E10.05844
G1 X-27.359 Y22.777 E10.07215
G1 X-27.597 Y22.445 E10.08574
G1 X-27.751 Y22.089 E10.09864
G1 X-27.825 Y21.707 E10.11158
G1 X-27.808 Y21.31 E10.1248
G1 X-27.699 Y20.924 E10.13814
G1 X-27.509 Y20.58 E10.15121
G1 X-27.236 Y20.271 E10.16492
G1 X-26.878 Y20.019 E10.17948
G1 X-26.682 Y19.947 E10.18643
G1 X-26.417 Y19.899 E10.19539
G1 X-25.16 Y19.892 E10.23719
G1 X-24.72 Y19.684 E10.25338
G1 X-21.319 Y15.606 E10.43
G1 X-21.484 Y15.091 E10.44798
G1 X-21.199 Y15.109 E10.45748
G1 X3.332 Y15.109 E11.27338
G1 X4.561 Y17.964 E11.37677
G1 X5.913 Y19.585 E11.44697
G1 X6.353 Y19.791 E11.46313
G1 X7.564 Y19.797 E11.50341
G1 X7.872 Y19.865 E11.5139
G1 X8.175 Y19.998 E11.52491
G1 X8.524 Y20.27 E11.53962
G1 X8.783 Y20.593 E11.55339
G1 X8.898 Y20.809 E11.56153
G1 X8.953 Y21.008 E11.5684
G1 X8.984 Y21.483 E11.58423
G1 X8.969 Y21.936 E11.59931
G1 X8.912 Y22.209 E11.60858
G1 X8.829 Y22.377 E11.61482
G1 X8.523 Y22.757 E11.63104
G1 X8.345 Y22.92 E11.63907
G1 X8.145 Y23.057 E11.64713
G1 X7.789 Y23.2 E11.65989
G1 X7.425 Y23.251 E11.67212
G1 X7.053 Y23.219 E11.68454
G1 X6.701 Y23.107 E11.69682
G1 X6.372 Y22.912 E11.70954
G0 F3000 X6.524 Y22.84
G1 F900 X8.211 Y22.84 E11.76565
G0 F3000 X7.994 Y22.966
G1 F900 X7.994 Y20.072 E11.86191
G0 F3000 X8.572 Y20.556
G1 F900 X5.846 Y20.556 E11.95258
G0 F3000 X5.71 Y20.228
G1 F900 X5.71 Y19.561 E11.97476
G0 F3000 X5.587 Y19.414
G1 F900 X4.958 Y19.414 E11.99568
G0 F3000 X4.568 Y19.044
G1 F900 X4.568 Y18.192 E12.02402
G0 F3000 X4.635 Y18.272
G1 F900 X3.747 Y18.272 E12.05355
G0 F3000 X3.426 Y17.984
G1 F900 X3.426 Y15.68 E12.13018
G0 F3000 X3.558 Y15.988
G1 F900 X-2.733 Y15.988 E12.33942
G0 F3000 X-2.284 Y16.37
G1 F900 X-2.284 Y15.249 E12.37671
G1 F4200 E7.87671
G0 F3000 X-2.284 Y15.338
G0 X-1.142 Y15.338
G0 X-1.142 Y15.249
G1 F4200 E12.37671
G1 F900 X-1.142 Y17.289 E12.44456
G0 F3000 X-1.346 Y17.13
G1 F900 X0.587 Y17.13 E12.50885
G0 F3000 X1.142 Y16.669
G1 F900 X1.142 Y15.249 E12.55608
G1 F4200 E8.05608
G0 F3000 X1.142 Y15.338
G0 X2.284 Y15.338
G0 X2.284 Y15.249
G1 F4200 E12.55608
G1 F900 X2.284 Y16.965 E12.61315
G0 F3000 X2.467 Y17.13
G1 F900 X4.05 Y17.13 E12.66581
G0 F3000 X6.852 Y19.934
G1 F900 X6.852 Y23.009 E12.76808
G0 F3000 X5.84 Y21.698
G1 F900 X8.835 Y21.698 E12.86769
G0 F3000 X0.00 Y17.603
G1 F900 X0.00 Y15.249 E12.94599
G1 F4200 E8.44599
G0 F3000 X0.00 Y15.338
G0 X-3.426 Y15.338
G0 X-3.426 Y15.249
G1 F4200 E12.94599
G1 F900 X-3.426 Y15.895 E12.96747
G0 F3000 X-3.646 Y15.988
G1 F900 X-15.357 Y15.987 E13.35698
G0 F3000 X-14.846 Y16.204
G1 F900 X-14.846 Y15.249 E13.38875
G1 F4200 E8.88875
G0 F3000 X-14.846 Y15.338
G0 X-15.988 Y15.338
G0 X-15.988 Y15.249
G1 F4200 E13.38875
G1 F900 X-15.988 Y15.919 E13.41103
G0 F3000 X-16.263 Y15.987
G1 F900 X-21.454 Y15.987 E13.58369
G0 F3000 X-21.698 Y16.279
G1 F900 X-21.698 Y17.606 E13.62782
G0 F3000 X-21.167 Y17.13
G1 F900 X-22.407 Y17.13 E13.66906
G0 F3000 X-22.84 Y17.649
G1 F900 X-22.84 Y18.631 E13.70173
G0 F3000 X-22.443 Y18.272
G1 F900 X-23.359 Y18.272 E13.73219
G0 F3000 X-23.982 Y19.018
G1 F900 X-23.982 Y19.673 E13.75398
G0 F3000 X-23.699 Y19.414
G1 F900 X-24.311 Y19.414 E13.77433
G0 F3000 X-25.124 Y20.029
G1 F900 X-25.124 Y22.783 E13.86593
G0 F3000 X-25.196 Y22.84
G1 F900 X-27.08 Y22.84 E13.92859
G0 F3000 X-27.408 Y22.468
G1 F900 X-27.408 Y20.684 E13.98793
G0 F3000 X-27.301 Y20.556
G1 F900 X-24.665 Y20.556 E14.0756
G0 F3000 X-24.624 Y21.698
G1 F900 X-27.684 Y21.698 E14.17738
G0 F3000 X-26.266 Y23.18
G1 F900 X-26.266 Y20.038 E14.28188
G0 F3000 X-20.556 Y16.7
G1 F900 X-20.556 Y15.249 E14.33014
G1 F4200 E9.83014
G0 F3000 X-20.556 Y15.338
G0 X-19.414 Y15.338
G0 X-19.414 Y15.249
G1 F4200 E14.33014
G1 F900 X-19.414 Y17.236 E14.39623
G0 F3000 X-19.536 Y17.13
G1 F900 X-17.674 Y17.13 E14.45816
G0 F3000 X-17.13 Y16.69
G1 F900 X-17.13 Y15.249 E14.50609
G1 F4200 E10.00609
G0 F3000 X-17.13 Y15.338
G0 X-18.272 Y15.338
G0 X-18.272 Y15.249
G1 F4200 E14.50609
G1 F900 X-18.272 Y17.57 E14.58329
G0 F3000 X-13.704 Y16.688
G1 F900 X-13.704 Y15.249 E14.63115
G1 F4200 E10.13115
G0 F3000 X-13.704 Y15.338
G0 X-12.562 Y15.338
G0 X-12.562 Y15.249
G1 F4200 E14.63115
G1 F900 X-12.562 Y18.387 E14.73552
G0 F3000 X-12.575 Y18.272
G1 F900 X-6.444 Y18.272 E14.93944
G0 F3000 X-6.588 Y19.414
G1 F900 X-12.428 Y19.414 E15.13367
G0 F3000 X-12.059 Y20.556
G1 F900 X-6.946 Y20.556 E15.30373
G0 F3000 X-6.852 Y20.452
G1 F900 X-6.852 Y15.249 E15.47679
G1 F4200 E10.97679
G0 F3000 X-6.852 Y15.338
G0 X-5.71 Y15.338
G0 X-5.71 Y15.249
G1 F4200 E15.47679
G1 F900 X-5.71 Y16.863 E15.53047
G0 F3000 X-6.105 Y17.13
G1 F900 X-12.907 Y17.13 E15.7567
G1 F4200 E11.2567
G0 F3000 X-11.42 Y15.338
G0 X-11.42 Y15.249
G1 F4200 E15.7567
G1 F900 X-11.42 Y20.705 E15.93817
G0 F3000 X-10.278 Y20.705
G1 F900 X-10.278 Y15.249 E16.11964
G1 F4200 E11.61964
G0 F3000 X-10.278 Y15.338
G0 X-9.136 Y15.338
G0 X-9.136 Y15.249
G1 F4200 E16.11964
G1 F900 X-9.136 Y20.705 E16.3011
G0 F3000 X-7.994 Y20.705
G1 F900 X-7.994 Y15.249 E16.48257
G1 F4200 E11.98257
G0 F3000 X-7.994 Y15.338
G0 X-4.568 Y15.338
G0 X-4.568 Y15.249
G1 F4200 E16.48257
G1 F900 X-4.568 Y16.379 E16.52016
G1 F4200 E12.02016
G0 F3000 X-4.568 Y15.338
G0 X-4.568 Y14.453
G0 X-21.175 Y14.374
G0 X-21.178 Y14.473
;TYPE:WALL-OUTER
G1 F4200 E16.52016
G1 F900 X-21.931 Y14.424 E16.54525
G1 X-22.645 Y14.283 E16.56946
G1 X-23.37 Y14.041 E16.59488
G1 X-24.053 Y13.706 E16.62018
G1 X-24.692 Y13.283 E16.64567
G1 X-25.265 Y12.784 E16.67094
G1 X-25.767 Y12.215 E16.69618
G1 X-26.19 Y11.584 E16.72145
G1 X-26.53 Y10.899 E16.74688
G1 X-26.774 Y10.182 E16.77207
G1 X-26.923 Y9.438 E16.79731
G1 X-26.974 Y8.66 E16.82324
G1 X-26.974 Y-17.313 E17.68711
G1 X-26.924 Y-18.087 E17.71291
G1 X-26.776 Y-18.829 E17.73807
G1 X-26.533 Y-19.546 E17.76325
G1 X-26.199 Y-20.224 E17.78839
G1 X-25.777 Y-20.855 E17.81364
G1 X-25.275 Y-21.427 E17.83895
G1 X-24.704 Y-21.928 E17.86421
G1 X-24.075 Y-22.348 E17.88937
G1 X-23.392 Y-22.685 E17.9147
G1 X-22.677 Y-22.927 E17.93981
G1 X-21.936 Y-23.076 E17.96495
G1 X-21.161 Y-23.126 E17.99078
G1 X21.812 Y-23.126 E19.42006
G1 X22.586 Y-23.076 E19.44586
G1 X23.327 Y-22.927 E19.471
G1 X24.045 Y-22.684 E19.49621
G1 X24.723 Y-22.35 E19.52135
G1 X25.354 Y-21.928 E19.5466
G1 X25.925 Y-21.427 E19.57186
G1 X26.427 Y-20.855 E19.59718
G1 X26.849 Y-20.224 E19.62242
G1 X27.183 Y-19.546 E19.64756
G1 X27.426 Y-18.829 E19.67274
G1 X27.574 Y-18.087 E19.69791
G1 X27.625 Y-17.313 E19.72371
G1 X27.625 Y8.66 E20.58757
G1 X27.574 Y9.434 E20.61337
G1 X27.426 Y10.176 E20.63854
G1 X27.183 Y10.893 E20.66372
G1 X26.849 Y11.572 E20.68888
G1 X26.427 Y12.203 E20.71413
G1 X25.925 Y12.774 E20.73942
G1 X25.354 Y13.275 E20.76469
G1 X24.723 Y13.697 E20.78993
G1 X24.045 Y14.031 E20.81507
G1 X23.327 Y14.275 E20.84029
G1 X22.586 Y14.423 E20.86543
G1 X21.812 Y14.473 E20.89122
G1 X-21.178 Y14.473 E22.32108
G0 F3000 X-21.377 Y14.461
G0 X-21.357 Y14.28
;TYPE:SKIN
G1 F900 X-26.78 Y8.857 E22.57616
G0 X-26.85 Y8.787
G0 F3000 X-26.793 Y8.278
G1 F900 X-20.779 Y14.292 E22.85904
G0 X-20.709 Y14.362
G0 F3000 X-20.214 Y14.292
G1 F900 X-26.793 Y7.713 E23.16849
G0 X-26.863 Y7.643
G0 F3000 X-26.793 Y7.147
G1 F900 X-19.648 Y14.292 E23.50457
G0 X-19.578 Y14.362
G0 F3000 X-19.082 Y14.292
G1 F900 X-26.793 Y6.581 E23.86727
G0 X-26.863 Y6.511
G0 F3000 X-26.793 Y6.016
G1 F900 X-18.517 Y14.292 E24.25655
G0 X-18.447 Y14.362
G0 F3000 X-17.951 Y14.292
G1 F900 X-26.793 Y5.45 E24.67245
G0 X-26.863 Y5.38
G0 F3000 X-26.793 Y4.884
G1 F900 X-17.385 Y14.292 E25.11498
G0 X-17.315 Y14.362
G0 F3000 X-16.819 Y14.292
G1 F900 X-26.793 Y4.319 E25.5841
G0 X-26.863 Y4.249
G0 F3000 X-26.793 Y3.753
G1 F900 X-16.254 Y14.292 E26.07982
G0 X-16.184 Y14.362
G0 F3000 X-15.688 Y14.292
G1 F900 X-26.793 Y3.187 E26.60217
G0 X-26.863 Y3.117
G0 F3000 X-26.793 Y2.621
G1 F900 X-15.122 Y14.292 E27.15113
G0 X-15.052 Y14.362
G0 F3000 X-14.557 Y14.292
G1 F900 X-26.793 Y2.056 E27.72668
G0 X-26.863 Y1.986
G0 F3000 X-26.793 Y1.49
G1 F900 X-13.991 Y14.292 E28.32885
G0 X-13.921 Y14.362
G0 F3000 X-13.425 Y14.292
G1 F900 X-26.793 Y0.924 E28.95763
G0 X-26.863 Y0.854
G0 F3000 X-26.793 Y0.359
G1 F900 X-12.86 Y14.292 E29.613
G0 X-12.79 Y14.362
G0 F3000 X-12.294 Y14.292
G1 F900 X-26.793 Y-.206 E30.29497
G0 X-26.863 Y-.276
G0 F3000 X-26.793 Y-.772
G1 F900 X-11.728 Y14.292 E31.00355
G0 X-11.658 Y14.362
G0 F3000 X-11.163 Y14.292
G1 F900 X-26.793 Y-1.337 E31.73872
G0 X-26.863 Y-1.407
G0 F3000 X-26.793 Y-1.903
G1 F900 X-10.597 Y14.292 E32.5005
G0 X-10.527 Y14.362
G0 F3000 X-10.031 Y14.292
G1 F900 X-26.793 Y-2.469 E33.28891
G0 X-26.863 Y-2.539
G0 F3000 X-26.793 Y-3.034
G1 F900 X-9.466 Y14.292 E34.1039
G0 X-9.396 Y14.362
G0 F3000 X-8.9 Y14.292
G1 F900 X-26.793 Y-3.6 E34.94551
G0 X-26.863 Y-3.67
G0 F3000 X-26.793 Y-4.166
G1 F900 X-8.334 Y14.292 E35.81374
G0 X-8.264 Y14.362
G0 F3000 X-7.768 Y14.292
G1 F900 X-26.793 Y-4.731 E36.70857
G0 X-26.863 Y-4.801
G0 F3000 X-26.793 Y-5.297
G1 F900 X-7.203 Y14.292 E37.63
G0 X-7.133 Y14.362
G0 F3000 X-6.637 Y14.292
G1 F900 X-26.793 Y-5.863 E38.57805
G0 X-26.863 Y-5.933
G0 F3000 X-26.793 Y-6.429
G1 F900 X-6.071 Y14.292 E39.55273
G0 X-6.001 Y14.362
G0 F3000 X-5.506 Y14.292
G1 F900 X-26.793 Y-6.994 E40.55398
G0 X-26.863 Y-7.064
G0 F3000 X-26.793 Y-7.56
G1 F900 X-4.94 Y14.292 E41.58185
G0 X-4.87 Y14.362
G0 F3000 X-4.374 Y14.292
G1 F900 X-26.793 Y-8.126 E42.63635
G0 X-26.863 Y-8.196
G0 F3000 X-26.793 Y-8.691
G1 F900 X-3.809 Y14.292 E43.71742
G0 X-3.739 Y14.362
G0 F3000 X-3.243 Y14.292
G1 F900 X-26.793 Y-9.257 E44.82512
G0 X-26.863 Y-9.327
G0 F3000 X-26.793 Y-9.823
G1 F900 X-2.677 Y14.292 E45.95944
G0 X-2.607 Y14.362
G0 F3000 X-2.112 Y14.292
G1 F900 X-26.793 Y-10.388 E47.12034
G0 X-26.863 Y-10.458
G0 F3000 X-26.793 Y-10.954
G1 F900 X-1.546 Y14.292 E48.30785
G0 X-1.476 Y14.362
G0 F3000 X-.98 Y14.292
G1 F900 X-26.793 Y-11.52 E49.52199
G0 X-26.863 Y-11.59
G0 F3000 X-26.793 Y-12.085
G1 F900 X-.415 Y14.292 E50.76271
G0 X-.345 Y14.362
G0 F3000 X0.15 Y14.292
G1 F900 X-26.793 Y-12.651 E52.03003
G0 X-26.863 Y-12.721
G0 F3000 X-26.793 Y-13.217
G1 F900 X0.716 Y14.292 E53.32397
G0 X0.786 Y14.362
G0 F3000 X1.281 Y14.292
G1 F900 X-26.793 Y-13.782 E54.64448
G0 X-26.863 Y-13.852
G0 F3000 X-26.793 Y-14.348
G1 F900 X1.847 Y14.292 E55.99162
G0 X1.917 Y14.362
G0 F3000 X2.413 Y14.292
G1 F900 X-26.793 Y-14.914 E57.36538
G0 X-26.863 Y-14.984
G0 F3000 X-26.793 Y-15.479
G1 F900 X2.979 Y14.292 E58.76574
G0 X3.049 Y14.362
G0 F3000 X3.544 Y14.292
G1 F900 X-26.793 Y-16.045 E60.1927
G0 X-26.863 Y-16.115
G0 F3000 X-26.793 Y-16.611
G1 F900 X4.11 Y14.292 E61.64628
G0 X4.18 Y14.362
G0 F3000 X4.676 Y14.292
G1 F900 X-26.793 Y-17.177 E63.12649
G0 X-26.863 Y-17.247
